icons/media/disc-attach-24.svg

<svg width="24" height="24" viewBox="0 0 24 24" fill="none" xmlns="http://www.w3.org/2000/svg">
<path fill-rule="evenodd" clip-rule="evenodd" d="M19.75 15.5C19.3358 15.5 19 15.8358 19 16.25V20.25C19 20.6642 18.6642 21 18.25 21C17.8358 21 17.5 20.6642 17.5 20.25V16.25C17.5 15.0074 18.5074 14 19.75 14C20.9926 14 22 15.0074 22 16.25V20.375C22 22.377 20.377 24 18.375 24C16.373 24 14.75 22.377 14.75 20.375V18.75C14.75 18.3358 15.0858 18 15.5 18C15.9142 18 16.25 18.3358 16.25 18.75V20.375C16.25 21.5486 17.2014 22.5 18.375 22.5C19.5486 22.5 20.5 21.5486 20.5 20.375V16.25C20.5 15.8358 20.1642 15.5 19.75 15.5Z" fill="black"/>
<path fill-rule="evenodd" clip-rule="evenodd" d="M12 2.5C6.75329 2.5 2.5 6.75329 2.5 12C2.5 17.2467 6.75329 21.5 12 21.5C12.4142 21.5 12.75 21.8358 12.75 22.25C12.75 22.6642 12.4142 23 12 23C5.92487 23 1 18.0751 1 12C1 5.92487 5.92487 1 12 1C18.0751 1 23 5.92487 23 12C23 12.4142 22.6642 12.75 22.25 12.75C21.8358 12.75 21.5 12.4142 21.5 12C21.5 6.75329 17.2467 2.5 12 2.5Z" fill="black"/>
<path fill-rule="evenodd" clip-rule="evenodd" d="M12 13.5C12.8284 13.5 13.5 12.8284 13.5 12C13.5 11.1716 12.8284 10.5 12 10.5C11.1716 10.5 10.5 11.1716 10.5 12C10.5 12.8284 11.1716 13.5 12 13.5ZM12 15C13.6569 15 15 13.6569 15 12C15 10.3431 13.6569 9 12 9C10.3431 9 9 10.3431 9 12C9 13.6569 10.3431 15 12 15Z" fill="black"/>
</svg>

<svg xmlns="http://www.w3.org/2000/svg" width="24" height="24"><path fill-rule="evenodd" d="M19.75 15.5a.75.75 0 00-.75.75v4a.75.75 0 01-1.5 0v-4a2.25 2.25 0 014.5 0v4.125a3.625 3.625 0 01-7.25 0V18.75a.75.75 0 011.5 0v1.625a2.125 2.125 0 004.25 0V16.25a.75.75 0 00-.75-.75z"/><path fill-rule="evenodd" d="M12 2.5a9.5 9.5 0 100 19 .75.75 0 010 1.5C5.925 23 1 18.075 1 12S5.925 1 12 1s11 4.925 11 11a.75.75 0 01-1.5 0A9.5 9.5 0 0012 2.5z"/><path fill-rule="evenodd" d="M12 13.5a1.5 1.5 0 100-3 1.5 1.5 0 000 3zm0 1.5a3 3 0 100-6 3 3 0 000 6z"/></svg>
